src/assets/duotone/DocumentDownload.svg

<svg width="24" height="24" viewBox="0 0 24 24"  xmlns="http://www.w3.org/2000/svg">
<path opacity="0.4" d="M20.5 10.19H17.61C15.24 10.19 13.31 8.26 13.31 5.89V3C13.31 2.45 12.86 2 12.31 2H8.07C4.99 2 2.5 4 2.5 7.57V16.43C2.5 20 4.99 22 8.07 22H15.93C19.01 22 21.5 20 21.5 16.43V11.19C21.5 10.64 21.05 10.19 20.5 10.19Z" />
<path d="M15.8002 2.21048C15.3902 1.80048 14.6802 2.08048 14.6802 2.65048V6.14048C14.6802 7.60048 15.9202 8.81048 17.4302 8.81048C18.3802 8.82048 19.7002 8.82048 20.8302 8.82048C21.4002 8.82048 21.7002 8.15048 21.3002 7.75048C19.8602 6.30048 17.2802 3.69048 15.8002 2.21048Z" />
<path d="M12.2799 14.72C11.9899 14.43 11.5099 14.43 11.2199 14.72L10.4999 15.44V11.25C10.4999 10.84 10.1599 10.5 9.74994 10.5C9.33994 10.5 8.99994 10.84 8.99994 11.25V15.44L8.27994 14.72C7.98994 14.43 7.50994 14.43 7.21994 14.72C6.92994 15.01 6.92994 15.49 7.21994 15.78L9.21994 17.78C9.22994 17.79 9.23994 17.79 9.23994 17.8C9.29994 17.86 9.37994 17.91 9.45994 17.95C9.55994 17.98 9.64994 18 9.74994 18C9.84994 18 9.93994 17.98 10.0299 17.94C10.1199 17.9 10.1999 17.85 10.2799 17.78L12.2799 15.78C12.5699 15.49 12.5699 15.01 12.2799 14.72Z" />
</svg>

<?xml version="1.0" encoding="UTF-8"?>
<svg width="24" height="24" viewBox="0 0 24 24" xmlns="http://www.w3.org/2000/svg">
 <path d="m20.5 10.19h-2.89c-2.37 0-4.3-1.93-4.3-4.3v-2.89c0-0.55-0.45-1-1-1h-4.24c-3.08 0-5.57 2-5.57 5.57v8.86c0 3.57 2.49 5.57 5.57 5.57h7.86c3.08 0 5.57-2 5.57-5.57v-5.24c0-0.55-0.45-1-1-1z" opacity=".4"/>
 <path d="m15.8 2.2105c-0.41-0.41-1.12-0.13-1.12 0.44v3.49c0 1.46 1.24 2.67 2.75 2.67 0.95 0.01 2.27 0.01 3.4 0.01 0.57 0 0.87-0.67 0.47-1.07-1.44-1.45-4.02-4.06-5.5-5.54z"/>
 <path d="m12.28 14.72c-0.29-0.29-0.77-0.29-1.06 0l-0.72 0.72v-4.19c0-0.41-0.34-0.75-0.74996-0.75-0.41 0-0.75 0.34-0.75 0.75v4.19l-0.72-0.72c-0.29-0.29-0.77-0.29-1.06 0s-0.29 0.77 0 1.06l2 2c0.01 0.01 0.02 0.01 0.02 0.02 0.06 0.06 0.14 0.11 0.22 0.15 0.1 0.03 0.19 0.05 0.29 0.05s0.19-0.02 0.27996-0.06c0.09-0.04 0.17-0.09 0.25-0.16l2-2c0.29-0.29 0.29-0.77 0-1.06z"/>
</svg>
